Gruvbox-Plus-Dark/actions/16/view-financial-category-delete.svg

<svg width="16" height="16" version="1.1" xmlns="http://www.w3.org/2000/svg">
  <defs>
    <style type="text/css">.ColorScheme-Text { color:#ebdbb2; } .ColorScheme-Highlight { color:#458588; }</style>
  </defs>
  <path class="ColorScheme-Text" d="m1.375 1c-0.2077 0-0.375 0.1673-0.375 0.375v1.25c0 0.2077 0.1673 0.375 0.375 0.375h1.25c0.2077 0 0.375-0.1673 0.375-0.375v-1.25c0-0.2077-0.1673-0.375-0.375-0.375zm2.625 0v2h11v-2zm-2.625 4c-0.2077 0-0.375 0.1673-0.375 0.375v1.25c0 0.2077 0.1673 0.375 0.375 0.375h1.25c0.2077 0 0.375-0.1673 0.375-0.375v-1.25c0-0.2077-0.1673-0.375-0.375-0.375zm2.625 0v2h11v-2zm-2.625 4c-0.2077 0-0.375 0.1673-0.375 0.375v1.25c0 0.2078 0.1673 0.375 0.375 0.375h1.25c0.2077 0 0.375-0.1672 0.375-0.375v-1.25c0-0.2077-0.1673-0.375-0.375-0.375zm2.625 0v2h6v-2zm7 1v0.707l1.793 1.793-1.793 1.793v0.707h0.707l1.793-1.793 1.793 1.793h0.707v-0.707l-1.793-1.793 1.793-1.793v-0.707h-0.707l-1.793 1.793-1.793-1.793zm-9.625 3c-0.2077 0-0.375 0.1672-0.375 0.375v1.25c0 0.2078 0.1673 0.375 0.375 0.375h1.25c0.2077 0 0.375-0.1672 0.375-0.375v-1.25c0-0.2078-0.1673-0.375-0.375-0.375zm2.625 0v2h6v-2z" fill="currentColor"/>
</svg>

<svg width="16" height="16" version="1.1" xmlns="http://www.w3.org/2000/svg">
  <defs>
    <style type="text/css">.ColorScheme-Text { color:#ebdbb2; } .ColorScheme-Highlight { color:#458588; } .ColorScheme-NegativeText { color:#fb4934; }</style>
  </defs>
  <path class="ColorScheme-Text" d="M 1.375,1 C 1.1673,1 1,1.1673 1,1.375 v 1.25 C 1,2.8327 1.1673,3 1.375,3 h 1.25 C 2.8327,3 3,2.8327 3,2.625 V 1.375 C 3,1.1673 2.8327,1 2.625,1 Z M 4,1 V 3 H 15 V 1 Z M 1.375,5 C 1.1673,5 1,5.1673 1,5.375 v 1.25 C 1,6.8327 1.1673,7 1.375,7 h 1.25 C 2.8327,7 3,6.8327 3,6.625 V 5.375 C 3,5.1673 2.8327,5 2.625,5 Z M 4,5 V 7 H 15 V 5 Z M 1.375,9 C 1.1673,9 1,9.1673 1,9.375 v 1.25 C 1,10.8328 1.1673,11 1.375,11 h 1.25 C 2.8327,11 3,10.8328 3,10.625 V 9.375 C 3,9.1673 2.8327,9 2.625,9 Z M 4,9 v 2 H 8 V 9 Z M 1.375,13 C 1.1673,13 1,13.1672 1,13.375 v 1.25 C 1,14.8328 1.1673,15 1.375,15 h 1.25 C 2.8327,15 3,14.8328 3,14.625 v -1.25 C 3,13.1672 2.8327,13 2.625,13 Z M 4,13 v 2 h 4 v -2 z" fill="currentColor"/>
  <path class="ColorScheme-NegativeText" d="m10 9v1c0 0.28 0.1 0.54 0.28 0.72l1.28 1.28-1.28 1.28c-0.18 0.18-0.28 0.44-0.28 0.72v1h1c0.28 0 0.54-0.1 0.72-0.28l1.28-1.28 1.28 1.28c0.18 0.18 0.44 0.28 0.72 0.28h1v-1c0-0.28-0.1-0.54-0.28-0.72l-1.28-1.28 1.28-1.28c0.18-0.18 0.28-0.44 0.28-0.72v-1h-1c-0.28 0-0.54 0.1-0.72 0.28l-1.28 1.28-1.28-1.28c-0.18-0.18-0.44-0.28-0.72-0.28z" fill="currentColor"/>
</svg>
